svgs/light/mug-marshmallows.svg

<svg xmlns="http://www.w3.org/2000/svg" viewBox="0 0 512 512"><!-- Font Awesome Pro 6.0.0-alpha2 by @fontawesome - https://fontawesome.com License - https://fontawesome.com/license (Commercial License) --><path d="M400 160H32C14.328 160 0 174.326 0 192V384C0 437.02 42.98 480 96 480H288C341.02 480 384 437.02 384 384H400C461.75 384 512 333.75 512 272S461.75 160 400 160ZM352 384C352 419.289 323.291 448 288 448H96C60.711 448 32 419.289 32 384V192H96V272C96 280.836 103.164 288 112 288S128 280.836 128 272V192H352V384ZM400 352H384V192H400C444.125 192 480 227.875 480 272S444.125 352 400 352ZM189.188 123.797C195.703 129.766 205.812 129.312 211.797 122.812L260.906 69.188C267.031 62.5 276.953 62.484 283.109 69.203L332.203 122.813C335.359 126.25 339.672 128 344 128C347.859 128 351.734 126.609 354.812 123.797C361.328 117.828 361.766 107.719 355.797 101.187L306.719 47.594C288.344 27.469 255.641 27.484 237.297 47.578L188.203 101.187C182.234 107.719 182.672 117.828 189.188 123.797ZM48 128C56.844 128 64 120.844 64 112V80.25C64 71.297 71.156 64 79.938 64H176C184.844 64 192 56.844 192 48S184.844 32 176 32H79.938C53.5 32 32 53.641 32 80.25V112C32 120.844 39.156 128 48 128Z"/></svg>

<svg xmlns="http://www.w3.org/2000/svg" viewBox="0 0 512 512"><!--! Font Awesome Pro 6.3.0 by @fontawesome - https://fontawesome.com License - https://fontawesome.com/license (Commercial License) Copyright 2023 Fonticons, Inc. --><path d="M400 160.1H32c-17.67 0-32 14.33-32 32v191.9C0 437.1 42.98 480 96 480h192c53.02 0 96-42.93 96-95.95l16 .0125c61.75 0 112-50.19 112-111.9S461.8 160.1 400 160.1zM352 384c0 35.29-28.71 64-64 64H96c-35.29 0-64-28.71-64-64V192h64v80C96 280.8 103.2 288 112 288S128 280.8 128 272V192h224V384zM400 352H384V192h16C444.1 192 480 227.9 480 272S444.1 352 400 352zM189.2 123.8c6.516 5.969 16.62 5.516 22.61-.9844l49.11-53.63c6.125-6.688 16.05-6.703 22.2 .0156l49.09 53.61C335.4 126.3 339.7 128 344 128c3.859 0 7.734-1.391 10.81-4.203c6.516-5.969 6.953-16.08 .9844-22.61l-49.08-53.59c-18.38-20.12-51.08-20.11-69.42-.0156l-49.09 53.61C182.2 107.7 182.7 117.8 189.2 123.8zM48 128C56.84 128 64 120.8 64 112V80.25C64 71.3 71.16 64 79.94 64H176C184.8 64 192 56.84 192 48S184.8 32 176 32H79.94C53.5 32 32 53.64 32 80.25V112C32 120.8 39.16 128 48 128z"/></svg>
